X: 5480
T: Bunessan
R: waltz
M: 3/4
K: Dmajor
"D"D2 F2 A2|d6|"Em"e6|"A"c2 B2 A2|"G"B3 c B2|"D"A6|D2 E2 F2|"F#m"A6|
"G"B6|"D"A2 F2 D2|"A"E6-|"A7"E6|"D"A2 F2 A2|"G"d6|B6|"D"A2 F2 D2|
"Bm"D6|"A"E6|"D"F2 E2 F2|"F#m"A6|"G"B6|"A"E2 F2 E2|
"D"D6-|D6||

